X:856
T:Rory O'Moore
B:O'Neill's 856
Z:Transcribed by Dan G. Petersen, dangp@post6.tele.dk
M:6/8
L:1/8
K:G
e|dGG BGG|dGG G2e|dcB BAG|FAA ABc|
dGG BGG|dGG edc|Bcd def|gGG G2:|
f|gfe edB|dcBA G2F|EFG GAB|Bed e2e/f/|
gfe edB|dcBA G2F|EFG GAB|1 edd d2:|2 Bed e2|]
